Papirus/64x64/mimetypes/application-x-hda.svg

<?xml version="1.0" encoding="UTF-8" standalone="no"?>
<svg
   id="_图层_1"
   data-name="图层_1"
   version="1.1"
   viewBox="0 0 128 128"
   width="64"
   height="64"
   sodipodi:docname="application-x-hda.svg"
   xml:space="preserve"
   inkscape:version="1.4 (e7c3feb100, 2024-10-09)"
   xmlns:inkscape="http://www.inkscape.org/namespaces/inkscape"
   xmlns:sodipodi="http://sodipodi.sourceforge.net/DTD/sodipodi-0.dtd"
   xmlns="http://www.w3.org/2000/svg"
   xmlns:svg="http://www.w3.org/2000/svg"><sodipodi:namedview
     id="namedview3"
     pagecolor="#505050"
     bordercolor="#eeeeee"
     borderopacity="1"
     inkscape:showpageshadow="0"
     inkscape:pageopacity="0"
     inkscape:pagecheckerboard="0"
     inkscape:deskcolor="#505050"
     inkscape:zoom="10.6875"
     inkscape:cx="32"
     inkscape:cy="26.292398"
     inkscape:window-width="1920"
     inkscape:window-height="939"
     inkscape:window-x="0"
     inkscape:window-y="34"
     inkscape:window-maximized="1"
     inkscape:current-layer="_图层_1"
     showguides="true"><sodipodi:guide
       position="7.6134526,83.439664"
       orientation="1,0"
       id="guide7"
       inkscape:locked="false" /><sodipodi:guide
       position="120.24109,71.856006"
       orientation="1,0"
       id="guide8"
       inkscape:locked="false" /></sodipodi:namedview><!-- Generator: Adobe Illustrator 29.0.1, SVG Export Plug-In . SVG Version: 2.1.0 Build 192)  --><defs
     id="defs1"><style
       id="style1">
      .st0 {
        fill: #0071e9;
      }

      .st1 {
        fill: #fff;
      }

      .st2 {
        fill: #5aaaff;
        isolation: isolate;
        opacity: .5;
      }
    </style><style
       id="style1-6">
      .st0 {
        fill: #0071e9;
      }

      .st1 {
        fill: #fff;
      }

      .st2 {
        fill: #5aaaff;
        isolation: isolate;
        opacity: .5;
      }
    </style><style
       id="style1-8">
      .st0 {
        fill: #0071e9;
      }

      .st1 {
        fill: #fff;
      }

      .st2 {
        fill: #5aaaff;
        isolation: isolate;
        opacity: .5;
      }
    </style></defs><path
     class="st0"
     d="M18.2,0c-5.6,0-10.2,4.6-10.2,10.2v107.6c0,5.6,4.6,10.2,10.2,10.2h91.6c5.6,0,10.2-4.6,10.2-10.2V40.6L82.2,0H18.2Z"
     id="path1"
     style="fill:#e4e4e4;fill-opacity:1" /><path
     class="st2"
     d="m 82.761404,2.619883 v 29.2 c 0,3.2 2.145542,11.6 11.89801,11.6 h 24.966316 z"
     id="path2"
     style="fill:#cdcdcd;fill-opacity:1;stroke-width:0.987546" /><path
     class="st2"
     d="M 82.116964,0.02339171 V 29.223392 c 0,3.2 2.2,11.6 12.2,11.6 h 25.599996 z"
     id="path2-3"
     style="opacity:1;isolation:isolate;fill:#fafafa;fill-opacity:1" /><g
     id="g9"
     transform="matrix(1.5621053,0,0,1.4944063,12.983391,29.817946)"><path
       style="opacity:0.2"
       d="M 7.0109,21.723 C 7.0046,21.83 7.001,21.936 7,22.043 v 21.774 c 7e-4,2.274 1.2094,4.376 3.171,5.513 l 18.658,10.817 c 1.962,1.137 4.38,1.137 6.342,0 L 53.829,49.33 C 55.791,48.192 57,46.09 57,43.814 V 22.043 C 56.997,21.963 56.992,21.883 56.986,21.802 57,21.8 7.0109,21.723 7.0109,21.723 Z"
       id="path1-7" /><path
       style="fill:#c25824"
       d="M 7.0109,20.723 C 7.0046,20.83 7.001,20.936 7,21.043 v 21.774 c 7e-4,2.274 1.2094,4.376 3.171,5.513 l 18.658,10.817 c 1.962,1.137 4.38,1.137 6.342,0 L 53.829,48.33 C 55.791,47.192 57,45.09 57,42.814 V 21.043 C 56.997,20.963 56.992,20.883 56.986,20.802 57,20.8 7.0109,20.723 7.0109,20.723 Z"
       id="path2-5" /><path
       style="fill:#f36128"
       d="M 32.149,4 V 4.0028 A 6.346,6.4428 0 0 0 28.826,4.8605 L 10.155,15.806 A 6.346,6.4428 0 0 0 7,20.972 a 6.346,6.4428 0 0 0 3.155,5.219 l 18.671,10.946 a 6.346,6.4428 0 0 0 6.348,0 L 53.845,26.191 A 6.346,6.4428 0 0 0 57,21.025 6.346,6.4428 0 0 0 53.845,15.806 L 35.174,4.8605 A 6.346,6.4428 0 0 0 32.149,4 Z"
       id="path3" /><path
       style="opacity:0.2;fill:#ffffff"
       d="m 32.148,4 v 0.0039 a 6.346,6.4428 0 0 0 -3.32,0.8555 L 10.156,15.805 A 6.346,6.4428 0 0 0 7,20.973 6.346,6.4428 0 0 0 7.0547,21.449 6.346,6.4428 0 0 1 10.156,16.805 L 28.828,5.8594 a 6.346,6.4428 0 0 1 3.32,-0.8555 V 5 a 6.346,6.4428 0 0 1 3.024,0.8594 L 53.844,16.805 A 6.346,6.4428 0 0 1 56.945,21.494 6.346,6.4428 0 0 0 57,21.023 6.346,6.4428 0 0 0 53.844,15.805 L 35.172,4.8594 A 6.346,6.4428 0 0 0 32.148,4 Z"
       id="path4" /><path
       style="opacity:0.1"
       d="m 7.0117,20.723 c -0.0041,0.07 -0.006,0.14 -0.0078,0.211 A 6.346,6.4428 0 0 1 7.0254,20.723 Z M 7.0019,20.99 C 7.0017,21.008 7.0002,21.025 7,21.043 v 21.773 c 7e-4,2.275 1.2102,4.377 3.172,5.514 L 28.828,59.146 C 29.838,59.732 30.873,60.017 32,60 V 37.994 A 6.346,6.4428 0 0 1 28.826,37.137 L 10.154,26.191 A 6.346,6.4428 0 0 1 7.002,20.99 Z"
       id="path5" /><path
       style="opacity:0.1"
       d="M 7.0547,20.502 A 6.346,6.4428 0 0 0 7,20.973 a 6.346,6.4428 0 0 0 3.156,5.218 l 18.672,10.946 a 6.346,6.4428 0 0 0 6.344,0 L 53.844,26.191 A 6.346,6.4428 0 0 0 57,21.023 6.346,6.4428 0 0 0 56.945,20.547 6.346,6.4428 0 0 1 53.844,25.191 L 35.172,36.137 a 6.346,6.4428 0 0 1 -6.344,0 L 10.156,25.191 A 6.346,6.4428 0 0 1 7.0547,20.502 Z"
       id="path6" /><path
       style="opacity:0.2"
       d="m 43.527,29.899 c -3.956,2.311 -8.81,3.648 -11.278,4.013 -1.964,0.291 -4.408,0.321 -7.299,-0.049 -2.328,-1.364 -3.775,-2.208 -5.19,-3.044 2.145,0.319 4.756,0.617 7.192,0.831 3.457,0.304 8.64,-0.924 12.6,-3.188 0.266,-0.152 0.529,-0.31 0.79,-0.474 5.945,-3.74 5.445,-9.056 0.556,-12.086 -5.481,-3.396 -12.809,-3.55 -18.607,0.144 -3.891,2.479 -4.986,6.428 -0.817,8.765 3.276,1.837 8.121,1.982 11.856,-0.156 3.048,-1.745 2.265,-3.675 1.027,-4.424 -1.177,-0.714 -3.419,-1.199 -5.545,-0.348 -1.711,0.685 -2.244,2.769 1.236,3.039 -1.467,0.969 -3.753,1.21 -5.527,0.252 -3.461,-1.869 -1.306,-4.765 1.271,-5.923 4.761,-2.14 8.919,-1.481 12.429,0.693 3.633,2.25 3.371,6.264 -1.023,8.92 -3.478,2.102 -8.29,3.617 -15.34,1.814 -7.049,-1.802 -8.837,-5.765 -7.44,-9.993 1.135,-3.313 5.975,-6.977 12.869,-8.043 6.893,-1.0671 12.412,-0.306 17.547,2.901 7.259,4.534 7.315,11.321 -1.307,16.356 v 0"
       id="path7" /><path
       style="fill:#e4e4e4"
       d="m 43.527,28.899 c -3.956,2.311 -8.81,3.648 -11.278,4.013 -2.467,0.365 -5.735,0.319 -9.627,-0.413 l -5.265,-3.087 c 2.332,0.462 6.138,0.934 9.595,1.238 3.457,0.304 8.64,-0.924 12.6,-3.188 0.266,-0.152 0.529,-0.31 0.79,-0.474 5.945,-3.74 5.445,-9.056 0.556,-12.085 -5.481,-3.397 -12.809,-3.551 -18.607,0.143 -3.891,2.479 -4.986,6.428 -0.817,8.765 3.276,1.837 8.121,1.983 11.856,-0.156 3.048,-1.745 2.265,-3.674 1.027,-4.424 -1.177,-0.714 -3.419,-1.199 -5.545,-0.348 -1.711,0.685 -2.244,2.769 1.236,3.039 -1.467,0.969 -3.753,1.21 -5.527,0.253 -3.461,-1.87 -1.306,-4.765 1.271,-5.924 4.761,-2.14 8.919,-1.48 12.429,0.693 3.633,2.251 3.371,6.264 -1.023,8.921 -3.478,2.102 -8.29,3.616 -15.34,1.814 -7.049,-1.803 -8.837,-5.766 -7.44,-9.994 1.135,-3.312 5.975,-6.976 12.869,-8.043 6.893,-1.0668 12.412,-0.3053 17.547,2.902 7.259,4.533 7.315,11.32 -1.307,16.355 v 0"
       id="path8" /></g></svg>

<svg xmlns="http://www.w3.org/2000/svg" width="64" height="64" version="1.1">
 <path style="opacity:0.2" d="M 7.0109,21.723 C 7.0046,21.83 7.001,21.936 7,22.043 V 43.817 C 7.0007,46.091 8.2094,48.193 10.171,49.33 L 28.829,60.147 C 30.791,61.284 33.209,61.284 35.171,60.147 L 53.829,49.33 C 55.791,48.192 57,46.09 57,43.814 V 22.043 C 56.997,21.963 56.992,21.883 56.986,21.802 57,21.8 7.0109,21.723 7.0109,21.723 Z"/>
 <path style="fill:#c25824" d="M 7.0109,20.723 C 7.0046,20.83 7.001,20.936 7,21.043 V 42.817 C 7.0007,45.091 8.2094,47.193 10.171,48.33 L 28.829,59.147 C 30.791,60.284 33.209,60.284 35.171,59.147 L 53.829,48.33 C 55.791,47.192 57,45.09 57,42.814 V 21.043 C 56.997,20.963 56.992,20.883 56.986,20.802 57,20.8 7.0109,20.723 7.0109,20.723 Z"/>
 <path style="fill:#f36128" d="M 32.149,4 V 4.0028 A 6.346,6.4428 0 0 0 28.826,4.8605 L 10.155,15.806 A 6.346,6.4428 0 0 0 7,20.972 6.346,6.4428 0 0 0 10.155,26.191 L 28.826,37.137 A 6.346,6.4428 0 0 0 35.174,37.137 L 53.845,26.191 A 6.346,6.4428 0 0 0 57,21.025 6.346,6.4428 0 0 0 53.845,15.806 L 35.174,4.8605 A 6.346,6.4428 0 0 0 32.149,4 Z"/>
 <path style="opacity:0.2;fill:#ffffff" d="M 32.148,4 V 4.0039 A 6.346,6.4428 0 0 0 28.828,4.8594 L 10.156,15.805 A 6.346,6.4428 0 0 0 7,20.973 6.346,6.4428 0 0 0 7.0547,21.449 6.346,6.4428 0 0 1 10.156,16.805 L 28.828,5.8594 A 6.346,6.4428 0 0 1 32.148,5.0039 V 5 A 6.346,6.4428 0 0 1 35.172,5.8594 L 53.844,16.805 A 6.346,6.4428 0 0 1 56.945,21.494 6.346,6.4428 0 0 0 57,21.023 6.346,6.4428 0 0 0 53.844,15.805 L 35.172,4.8594 A 6.346,6.4428 0 0 0 32.148,4 Z"/>
 <path style="opacity:0.1" d="M 7.0117,20.723 C 7.0076,20.793 7.0057,20.863 7.0039,20.934 A 6.346,6.4428 0 0 1 7.0254,20.723 Z M 7.0019,20.99 C 7.0017,21.008 7.0002,21.025 7,21.043 V 42.816 C 7.0007,45.091 8.2102,47.193 10.172,48.33 L 28.828,59.146 C 29.838,59.732 30.873,60.017 32,60 V 37.994 A 6.346,6.4428 0 0 1 28.826,37.137 L 10.154,26.191 A 6.346,6.4428 0 0 1 7.002,20.99 Z"/>
 <path style="opacity:0.1" d="M 7.0547,20.502 A 6.346,6.4428 0 0 0 7,20.973 6.346,6.4428 0 0 0 10.156,26.191 L 28.828,37.137 A 6.346,6.4428 0 0 0 35.172,37.137 L 53.844,26.191 A 6.346,6.4428 0 0 0 57,21.023 6.346,6.4428 0 0 0 56.945,20.547 6.346,6.4428 0 0 1 53.844,25.191 L 35.172,36.137 A 6.346,6.4428 0 0 1 28.828,36.137 L 10.156,25.191 A 6.346,6.4428 0 0 1 7.0547,20.502 Z"/>
 <path style="opacity:0.2" d="M 43.527,29.899 C 39.571,32.21 34.717,33.547 32.249,33.912 30.285,34.203 27.841,34.233 24.95,33.863 22.622,32.499 21.175,31.655 19.76,30.819 21.905,31.138 24.516,31.436 26.952,31.65 30.409,31.954 35.592,30.726 39.552,28.462 39.818,28.31 40.081,28.152 40.342,27.988 46.287,24.248 45.787,18.932 40.898,15.902 35.417,12.506 28.089,12.352 22.291,16.046 18.4,18.525 17.305,22.474 21.474,24.811 24.75,26.648 29.595,26.793 33.33,24.655 36.378,22.91 35.595,20.98 34.357,20.231 33.18,19.517 30.938,19.032 28.812,19.883 27.101,20.568 26.568,22.652 30.048,22.922 28.581,23.891 26.295,24.132 24.521,23.174 21.06,21.305 23.215,18.409 25.792,17.251 30.553,15.111 34.711,15.77 38.221,17.944 41.854,20.194 41.592,24.208 37.198,26.864 33.72,28.966 28.908,30.481 21.858,28.678 14.809,26.876 13.021,22.913 14.418,18.685 15.553,15.372 20.393,11.708 27.287,10.642 34.18,9.5749 39.699,10.336 44.834,13.543 52.093,18.077 52.149,24.864 43.527,29.899 V 29.899"/>
 <path style="fill:#e4e4e4" d="M 43.527,28.899 C 39.571,31.21 34.717,32.547 32.249,32.912 29.782,33.277 26.514,33.231 22.622,32.499 L 17.357,29.412 C 19.689,29.874 23.495,30.346 26.952,30.65 30.409,30.954 35.592,29.726 39.552,27.462 39.818,27.31 40.081,27.152 40.342,26.988 46.287,23.248 45.787,17.932 40.898,14.903 35.417,11.506 28.089,11.352 22.291,15.046 18.4,17.525 17.305,21.474 21.474,23.811 24.75,25.648 29.595,25.794 33.33,23.655 36.378,21.91 35.595,19.981 34.357,19.231 33.18,18.517 30.938,18.032 28.812,18.883 27.101,19.568 26.568,21.652 30.048,21.922 28.581,22.891 26.295,23.132 24.521,22.175 21.06,20.305 23.215,17.41 25.792,16.251 30.553,14.111 34.711,14.771 38.221,16.944 41.854,19.195 41.592,23.208 37.198,25.865 33.72,27.967 28.908,29.481 21.858,27.679 14.809,25.876 13.021,21.913 14.418,17.685 15.553,14.373 20.393,10.709 27.287,9.642 34.18,8.5752 39.699,9.3367 44.834,12.544 52.093,17.077 52.149,23.864 43.527,28.899 V 28.899"/>
</svg>
